X:1
T:[ID 3-81]
T:[ID 3-81]
T:Bezeichnung standardisiert: Polonaise Polonoise
T:Urheber unbekannt Datum in der hier transkribierten schriftlichen Quelle: 1767
C:Urheber unbekannt
C:Datum in der hier transkribierten schriftlichen Quelle: 1767
%%score 1 2
L:1/8
M:3/4
K:D
V:1 treble 
V:2 treble 
V:1
 df/g/ a2 d'2 | c'bagfe | d/e/f/g/ a2 b2 | (3cde A4 | BggBAG | AffAGF | GeFdEg | f/e/d/c/{c} d4 :: %8
 A/B/c/d/ e2 f2 | gg/f/ gbag | ff/e/ fagf | fe Te4 | d/e/f/g/ a2 =c2 | B/A/G/F/{F} G4 | %14
 e/f/^g/a/ b2 d2 | c/B/A/^G/ A4 | GBdgbG | FAdfaF | GeFdEg | f/e/d/^c/{c} d4 :| %20
V:2
 !fermata!Fd/e/ f2 a2 | agfedA | F/A/ d/e/ f2 g2 | (3ABc F4 | GeeGFE | FddFED | eGfDgE | %7
 d/A/F/A/ F4 :: A/^G/A/B/ A2 d2 | ee/d/ egfe | dd/c/ dfed | dA TA4 | F/A/d/e/ f2 A2 | %13
 d/c/B/A/{A} B4 | c/d/e/f/ g2 B2 | A/G/F/E/ F4 | DGBdfG | DFAdfD | EgDfGe | d/A/F/A/{G} F4 :| %20

